icons/arrow-block-topleft.svg

<svg width="24" height="24" viewBox="0 0 24 24" fill="none" xmlns="http://www.w3.org/2000/svg">
<path fill-rule="evenodd" clip-rule="evenodd" d="M5.6027 5.7027L8.21293 15.6036L10.5891 13.1284L15.4 17.9393L17.9393 15.4L13.1393 10.6L15.4425 8.29683L5.6027 5.7027ZM5.75025 4.19035C5.19621 3.96183 4.686 4.21672 4.40963 4.51821C4.13385 4.81906 3.95068 5.29504 4.07239 5.7819L6.99453 16.8661L7.02918 16.9354C7.18312 17.2433 7.46206 17.4558 7.80643 17.505C8.10218 17.5472 8.3619 17.4576 8.53541 17.3708L8.65131 17.3129L10.6109 15.2716L14.4697 19.1303C14.7422 19.4028 15.1011 19.5 15.4 19.5C15.6989 19.5 16.0579 19.4028 16.3303 19.1303L19.1303 16.3303C19.4028 16.0578 19.5 15.6989 19.5 15.4C19.5 15.1011 19.4028 14.7421 19.1303 14.4697L15.2607 10.6L17.0712 8.78944C17.4428 8.52471 17.513 8.07786 17.4211 7.75646C17.3359 7.4581 17.0663 7.11496 16.6281 7.05815L5.75025 4.19035Z" fill="black"/>
</svg>

<svg xmlns="http://www.w3.org/2000/svg" fill="none" viewBox="0 0 24 24">
  <path fill="#000" fill-rule="evenodd" d="m5.603 5.703 2.61 9.9 2.376-2.475L15.4 17.94l2.54-2.539-4.8-4.8 2.303-2.303-9.84-2.594ZM5.75 4.19c-.554-.228-1.064.027-1.34.328s-.46.777-.338 1.264l2.923 11.084.034.07c.154.307.433.52.777.569a1.25 1.25 0 0 0 .73-.134l.115-.058 1.96-2.041 3.859 3.858c.272.273.631.37.93.37.299 0 .658-.097.93-.37l2.8-2.8c.273-.272.37-.631.37-.93 0-.299-.097-.658-.37-.93l-3.87-3.87 1.811-1.81c.372-.265.442-.712.35-1.034-.085-.298-.355-.641-.793-.698L5.75 4.19Z" clip-rule="evenodd"/>
</svg>
